X: 1170
T: İstanbul`dan Üsküdar`a Yol Gider
C: Muzaffer Sarısözen
O: Turkey
F: http://compmusic.upf.edu/node/140
N: muhayyer--turku--raksaksagi--istanbuldan_uskudara--
N: makam= muhayyer
N: form= turku
N: usul= raksaksagi = 9/8
M: 9/8
L: 1/16
K: C _2/4B ^3/4f  
Q: 1/4=216
%%MIDI tuningsystem comma53
g4 a6g2 ^2/4f2e2 d2 | e2 ^2/4f2g2 e2d2 dcde c2B2  | \
w:  ARANAĞME  |   | 
A2B2 c2{d}c2 B2A6 G2 | 
w:   | 
A2 B2c2 d2e2 =fefg e2d2  | c2B2 d2B2 A2A8 | \
w:   |   | 
g4a6 g2^2/4f2 e2d2  | 
w:  ARANAĞME  | 
e2^2/4f2 g2e2 d2dc dec2 B2 | A2 B2c2 {d}c2B2 A6G2  | \
w:   |   | 
A2B2 c2d2 e2=fe fge2 d2 | 
w:   | 
c2 B2d2 B2A2 A8  | g4 a6g2 ^2/4f2e2 d2 | \
w:   |  İs tan bul *  dan   | 
e2 ^2/4f2g2 e2d2 d2e2 c2B2  | 
w:  Üs *  kü *  *  da *  ra   | 
A2B2 c2{d}c2 B2A6 G2 | A2 B2c2 d2e2 =f4 e2d2  | \
w:  yol  *  gi *  *  *  der    |  yol  *  gi *  *  der  Ça vuş   | 
c2B2 d2B2 A2A8 | 
w:  yol  *  gi *  *  der    | 
g4a6 g2^2/4f2 e2d2  | e2^2/4f2 g2e2 d2d4c2 B2 | \
w:  Ha nım la *  ra   |  des *  te  *  *  des te   | 
A2 B2c2 {d}c2B2 A6G2  | 
w:  gül  *  gi *  *  *  der    | 
A2B2 c2d2 e2=f4e2 d2 | c2 B2d2 B2A2 A8  | \
w:  gül  *  gi *  *  der  Ça vuş   |  gül  *  gi *  *  der    | 
g4 a6g2 ^2/4f2e2 d2 | e2 ^2/4f2g2 e2d2 d4 c2B2  | 
w:  Yan dım  Ça *  vuş   |  yan *  dım  *  *  ben  se nin   | 
A2B2 c2{d}c2 B2A6 G2 | A2 B2c2 d2e2 =f4 e2d2  | \
w:  e *  lin *  *  *  den    |  e *  lin *  *  den  Ça vuş   | 
c2B2 d2B2 A2A8 | 
w:  e *  lin *  *  den    | 
g4a6 g2^2/4f2 e2d2  | e2^2/4f2 g2e2 d2d2 e2c2 B2 | \
w:  Çok  sa lın *  ma   |  ka sa tu ra  da  fır *  lar   | 
A2 B2c2 {d}c2B2 A6G2  | 
w:  be *  lin *  *  *  den    | 
A2B2 c2d2 e2=f4e2 d2 | c2 B2d2 B2A2 A3d e=fga  | \
w:  be *  lin *  *  den  Ça vuş   |  be *  lin *  *  den   SAZ  | 
g4 a6g2 ^2/4f2e2 d2 | 
w:  ARANAĞME  | 
e2 ^2/4f2g2 e2d2 dcde c2B2  | A2B2 c2{d}c2 B2A6 G2 | \
w:   |   | 
A2 B2c2 d2e2 =fefg e2d2  | 
w:   | 
c2B2 d2B2 A2A8 | g4a6 g2^2/4f2 e2d2  | \
w:   |  ARANAĞME  | 
e2^2/4f2 g2e2 d2dc dec2 B2 | 
w:   | 
A2 B2c2 {d}c2B2 A6G2  | A2B2 c2d2 e2=fe fge2 d2 | \
w:   |   | 
c2 B2d2 B2A2 A8  | 
w:   | 
g4 a6g2 ^2/4f2e2 d2 | e2 ^2/4f2g2 e2d2 d2e2 c2B2  | \
w:  İs tan bul *  dan   |  Üs *  kü *  *  da *  ra   | 
A2B2 c2{d}c2 B2A6 G2 | 
w:  yol  *  gi *  *  *  der    | 
A2 B2c2 d2e2 =f4 e2d2  | c2B2 d2B2 A2A8 | \
w:  yol  *  gi *  *  der  Ça vuş   |  yol  *  gi *  *  der    | 
g4a6 g2^2/4f2 e2d2  | e2^2/4f2 g2e2 d2d4c2 B2 | 
w:  Ha nım la *  ra   |  des *  te  *  *  des te   | 
A2 B2c2 {d}c2B2 A6G2  | A2B2 c2d2 e2=f4e2 d2 | \
w:  gül  *  gi *  *  *  der    |  gül  *  gi *  *  der  Ça vuş   | 
c2 B2d2 B2A2 A8  | 
w:  gül  *  gi *  *  der    | 
g4 a6g2 ^2/4f2e2 d2 | e2 ^2/4f2g2 e2d2 d4 c2B2  | \
w:  Yan dım  Ça *  vuş   |  yan *  dım  *  *  ben  se nin   | 
A2B2 c2{d}c2 B2A6 G2 | 
w:  e *  lin *  *  *  den    | 
A2 B2c2 d2e2 =f4 e2d2  | c2B2 d2B2 A2A8 | \
w:  e *  lin *  *  den  Ça vuş   |  e *  lin *  *  den    | 
g4a6 g2^2/4f2 e2d2  | e2^2/4f2 g2e2 d2d2 e2c2 B2 | 
w:  Çok  sa lın *  ma   |  ka sa tu ra  da  fır *  lar   | 
A2 B2c2 {d}c2B2 A6G2  | A2B2 c2d2 e2=f4e2 d2 | \
w:  be *  lin *  *  *  den    |  be *  lin *  *  den  Ça vuş   | 
c2 B2d2 B2A2 A8  | 
w:  be KARAR lin *  *  den    | 
|


